src/assets/images/percent.svg

<svg width="54" height="54" viewBox="0 0 54 54" fill="none" xmlns="http://www.w3.org/2000/svg">
<path d="M29.4263 53.0011C28.7867 53.6407 27.9193 54 27.0148 54C26.0928 54 25.2102 53.6267 24.568 52.9653L20.3307 48.6011C19.3891 47.6314 18.095 47.0841 16.7434 47.0841H10.3308C9.42875 47.0841 8.56079 46.7393 7.90463 46.1203C7.19657 45.4523 6.79524 44.522 6.79524 43.5485V37.3886C6.79524 36.0778 6.28045 34.8193 5.36174 33.8843L1.00041 29.4456C0.359253 28.793 0 27.9148 0 27C0 26.0852 0.359254 25.207 1.00041 24.5544L5.36174 20.1157C6.28045 19.1807 6.79524 17.9222 6.79524 16.6114V10.4112C6.79524 9.43782 7.19657 8.50746 7.90463 7.83948C8.56079 7.22045 9.42875 6.87565 10.3308 6.87565H16.752C18.0986 6.87565 19.3882 6.33249 20.3291 5.3691L24.5649 1.0318C25.2093 0.371998 26.0926 0 27.0148 0C27.9196 0 28.7875 0.358047 29.4292 0.995929L33.8806 5.42148C34.8174 6.35286 36.0848 6.87565 37.4058 6.87565H43.7266C44.6158 6.87565 45.4697 7.22427 46.1048 7.84669C46.7569 8.48575 47.1243 9.36037 47.1243 10.2734V16.5942C47.1243 17.9152 47.6471 19.1826 48.5785 20.1194L52.9998 24.5666C53.6404 25.2109 54 26.0826 54 26.9912C54 27.9102 53.6322 28.791 52.9786 29.437L48.4887 33.8754C47.5385 34.8147 47.0037 36.0952 47.0037 37.4313V43.6521C47.0037 44.5624 46.6421 45.4353 45.9985 46.0789C45.3549 46.7226 44.4819 47.0841 43.5717 47.0841H37.4143C36.0883 47.0841 34.8165 47.6109 33.8788 48.5486L29.4263 53.0011Z" fill="#0073FF"/>
<path fill-rule="evenodd" clip-rule="evenodd" d="M36.4593 17.5408C36.9385 18.0201 36.9385 18.7972 36.4593 19.2765L19.2774 36.4583C18.7982 36.9376 18.0211 36.9376 17.5418 36.4583C17.0625 35.979 17.0625 35.2019 17.5418 34.7227L34.7236 17.5408C35.2029 17.0616 35.98 17.0616 36.4593 17.5408Z" fill="white"/>
<path fill-rule="evenodd" clip-rule="evenodd" d="M20.2505 18.4086C19.2338 18.4086 18.4096 19.2328 18.4096 20.2496C18.4096 21.2663 19.2338 22.0905 20.2505 22.0905C21.2672 22.0905 22.0914 21.2663 22.0914 20.2496C22.0914 19.2328 21.2672 18.4086 20.2505 18.4086ZM15.9551 20.2496C15.9551 17.8772 17.8782 15.9541 20.2505 15.9541C22.6228 15.9541 24.546 17.8772 24.546 20.2496C24.546 22.6219 22.6228 24.545 20.2505 24.545C17.8782 24.545 15.9551 22.6219 15.9551 20.2496Z" fill="white"/>
<path fill-rule="evenodd" clip-rule="evenodd" d="M33.7505 31.9086C32.7338 31.9086 31.9096 32.7329 31.9096 33.7496C31.9096 34.7663 32.7338 35.5905 33.7505 35.5905C34.7672 35.5905 35.5914 34.7663 35.5914 33.7496C35.5914 32.7329 34.7672 31.9086 33.7505 31.9086ZM29.4551 33.7496C29.4551 31.3772 31.3782 29.4541 33.7505 29.4541C36.1228 29.4541 38.046 31.3772 38.046 33.7496C38.046 36.1219 36.1228 38.045 33.7505 38.045C31.3782 38.045 29.4551 36.1219 29.4551 33.7496Z" fill="white"/>
</svg>

<svg width="54" height="54" fill="none" xmlns="http://www.w3.org/2000/svg"><path d="M29.426 53.001a3.41 3.41 0 0 1-4.858-.036l-4.237-4.364a5 5 0 0 0-3.588-1.517h-6.412a3.536 3.536 0 0 1-3.536-3.536v-6.16a5 5 0 0 0-1.433-3.504L1 29.446a3.49 3.49 0 0 1 0-4.892l4.362-4.438a5 5 0 0 0 1.433-3.505v-6.2a3.536 3.536 0 0 1 3.536-3.535h6.421a5 5 0 0 0 3.577-1.507l4.236-4.337a3.425 3.425 0 0 1 4.864-.036l4.452 4.425a5 5 0 0 0 3.525 1.455h6.32a3.398 3.398 0 0 1 3.398 3.397v6.321a5 5 0 0 0 1.454 3.525L53 24.567a3.439 3.439 0 0 1-.021 4.87l-4.49 4.438a5 5 0 0 0-1.485 3.556v6.221a3.432 3.432 0 0 1-3.432 3.432h-6.158a5 5 0 0 0-3.535 1.465L29.426 53Z" fill="#0073FF"/><path fill-rule="evenodd" clip-rule="evenodd" d="M36.46 17.54c.478.48.478 1.257 0 1.736L19.276 36.459a1.227 1.227 0 1 1-1.735-1.735L34.724 17.54c.479-.48 1.256-.48 1.735 0ZM20.25 18.409a1.84 1.84 0 1 0 0 3.681 1.84 1.84 0 0 0 0-3.681Zm-4.295 1.84a4.295 4.295 0 1 1 8.59 0 4.295 4.295 0 0 1-8.59 0ZM33.75 31.909a1.841 1.841 0 1 0 0 3.682 1.841 1.841 0 0 0 0-3.682Zm-4.295 1.84a4.295 4.295 0 1 1 8.59 0 4.295 4.295 0 0 1-8.59 0Z" fill="#fff"/></svg>
